X: 27
T: Gillies' Taxis
C:Phil Cunningham
M:6/8
L:1/8
K:D
D2 E DB,A,| B,2 A, FEF|D2 E DB,A,|BAd F2 E|
D2 E DB,A,| B,2 A, FEF| EBB Bcd| AdD FEF :|
|: DFB Bcd| DFA ABc| dEF GFA| BAd F2 E|
FBB GBB| Add c2F| E2 F EDB,| DED B,2 A, :|

%%sep 2 1 500

